src/assets/img/mdi_phone_in_talk.svg

<svg width="24" height="24" fill="none" xmlns="http://www.w3.org/2000/svg"><path d="M20 15.5c-1.25 0-2.45-.2-3.57-.57a1.02 1.02 0 00-1.02.24l-2.2 2.2a15.045 15.045 0 01-6.59-6.59l2.2-2.21a.96.96 0 00.25-1A11.36 11.36 0 018.5 4c0-.55-.45-1-1-1H4c-.55 0-1 .45-1 1 0 9.39 7.61 17 17 17 .55 0 1-.45 1-1v-3.5c0-.55-.45-1-1-1zM19 12h2a9 9 0 00-9-9v2c3.87 0 7 3.13 7 7zm-4 0h2c0-2.76-2.24-5-5-5v2c1.66 0 3 1.34 3 3z" fill="#2E2E2E"/></svg>

<svg width="24" height="24" viewBox="0 0 24 24" fill="none" xmlns="http://www.w3.org/2000/svg">
<path d="M20 15.5C18.75 15.5 17.55 15.3 16.43 14.93C16.08 14.82 15.69 14.9 15.41 15.17L13.21 17.37C10.38 15.93 8.06 13.62 6.62 10.78L8.82 8.57C9.1 8.31 9.18 7.92 9.07 7.57C8.7 6.45 8.5 5.25 8.5 4C8.5 3.45 8.05 3 7.5 3H4C3.45 3 3 3.45 3 4C3 13.39 10.61 21 20 21C20.55 21 21 20.55 21 20V16.5C21 15.95 20.55 15.5 20 15.5ZM19 12H21C21 7.03 16.97 3 12 3V5C15.87 5 19 8.13 19 12ZM15 12H17C17 9.24 14.76 7 12 7V9C13.66 9 15 10.34 15 12Z" fill="#2E2E2E"/>
</svg>
